Hatter-kde/actions/16/irc-channel-inactive.svg

<svg xmlns="http://www.w3.org/2000/svg" viewBox="0 0 16 16">
  <defs
     id="defs3051">
    <style
       type="text/css"
       id="current-color-scheme">
      .ColorScheme-Text {
        color:#363636;
      }
      </style>
  </defs>
  <path
     style="fill:currentColor;fill-opacity:0.5;stroke:none" 
     d="m 10.49997,7.00003 c 1.939,0 3.5,1.561 3.5,3.5 0,1.939 -1.561,3.5 -3.5,3.5 -1.939,0 -3.5,-1.561 -3.5,-3.5 0,-1.939 1.561,-3.5 3.5,-3.5 z"
     class="ColorScheme-Text" />
  <path
     style="fill:currentColor;fill-opacity:1;stroke:none" 
     d="M 4 2 L 4 4 L 2 4 L 2 5 L 4 5 L 4 11 L 2 11 L 2 12 L 4 12 L 4 14 L 5 14 L 5 12 L 7.3457031 12 C 7.1981011 11.689116 7.0994754 11.353795 7.0488281 11 L 5 11 L 5 5 L 11 5 L 11 7.0488281 C 11.353795 7.0994754 11.689116 7.1981011 12 7.3457031 L 12 5 L 14 5 L 14 4 L 12 4 L 12 2 L 11 2 L 11 4 L 5 4 L 5 2 L 4 2 z M 13.951172 11 C 13.900525 11.353795 13.801899 11.689116 13.654297 12 L 14 12 L 14 11 L 13.951172 11 z M 12 13.654297 C 11.689116 13.801899 11.353795 13.900525 11 13.951172 L 11 14 L 12 14 L 12 13.654297 z "
     class="ColorScheme-Text" />
</svg>

<?xml version="1.0" encoding="UTF-8"?>
<svg viewBox="0 0 16 16" xmlns="http://www.w3.org/2000/svg">
 <defs id="defs3051">
  <style id="current-color-scheme" type="text/css">.ColorScheme-Text {
        color:#363636;
      }</style>
 </defs>
 <path class="ColorScheme-Text" d="m10.5 7c1.939 0 3.5 1.561 3.5 3.5s-1.561 3.5-3.5 3.5-3.5-1.561-3.5-3.5 1.561-3.5 3.5-3.5z" fill="currentColor" fill-opacity=".5"/>
 <path class="ColorScheme-Text" d="m4 2v2h-2v1h2v6h-2v1h2v2h1v-2h2.3457c-0.1476-0.31088-0.24623-0.6462-0.29688-1h-2.0488v-6h6v2.0488c0.3538 0.050647 0.68912 0.14927 1 0.29688v-2.3457h2v-1h-2v-2h-1v2h-6v-2h-1zm9.9512 9c-0.050647 0.3538-0.14927 0.68912-0.29688 1h0.3457v-1h-0.048828zm-1.9512 2.6543c-0.31088 0.1476-0.6462 0.24623-1 0.29688v0.048828h1v-0.3457z" fill="currentColor"/>
</svg>
